main/plus/game/gba.svg

<?xml version="1.0" encoding="UTF-8" standalone="no"?>
<svg
   xmlns:dc="http://purl.org/dc/elements/1.1/"
   xmlns:cc="http://creativecommons.org/ns#"
   xmlns:rdf="http://www.w3.org/1999/02/22-rdf-syntax-ns#"
   xmlns:svg="http://www.w3.org/2000/svg"
   xmlns="http://www.w3.org/2000/svg"
   viewBox="0 0 248.5675 143.97626"
   height="143.97626"
   width="248.5675"
   xml:space="preserve"
   version="1.1"
   id="svg2"><metadata
     id="metadata8"><rdf:RDF><cc:Work
         rdf:about=""><dc:format>image/svg+xml</dc:format><dc:type
           rdf:resource="http://purl.org/dc/dcmitype/StillImage" /><dc:title></dc:title></cc:Work></rdf:RDF></metadata><defs
     id="defs6"><clipPath
       id="clipPath16"
       clipPathUnits="userSpaceOnUse"><path
         id="path18"
         d="m 0,115.181 198.854,0 L 198.854,0 0,0 0,115.181 Z" /></clipPath></defs><g
     transform="matrix(1.25,0,0,-1.25,0,143.97625)"
     id="g10"><g
       id="g12"><g
         clip-path="url(#clipPath16)"
         id="g14"><g
           transform="translate(4.9375,4.166)"
           id="g20"><path
             id="path22"
             style="fill:#9f9f9e;fill-opacity:1;fill-rule:nonzero;stroke:none"
             d="m 0,0 0,88.507 5.475,0 0,-92.673 -1.308,0 C 1.866,-4.166 0,-2.3 0,0 l 0,88.507" /></g><g
           transform="translate(193.916,4.166)"
           id="g24"><path
             id="path26"
             style="fill:#9f9f9e;fill-opacity:1;fill-rule:nonzero;stroke:none"
             d="m 0,0 0,88.507 -5.474,0 0,-92.673 1.308,0 C -1.863,-4.166 0,-2.3 0,0 l 0,88.507" /></g><g
           transform="translate(99.4277,0)"
           id="g28"><path
             id="path30"
             style="fill:#bbbbb9;fill-opacity:1;fill-rule:nonzero;stroke:none"
             d="m 0,0 89.015,0 0,92.673 5.473,0 4.939,0 0,17.165 c 0,2.95 -2.393,5.343 -5.345,5.343 l -94.082,0 -94.084,0 c -2.951,0 -5.344,-2.393 -5.344,-5.343 l 0,-17.165 4.938,0 5.474,0 L -89.016,0 0,0 Z" /></g><g
           transform="translate(84.3974,9.4893)"
           id="g32"><path
             id="path34"
             style="fill:#9f9f9e;fill-opacity:1;fill-rule:nonzero;stroke:none"
             d="M 0,0 30.06,0 14.346,-6.641 0,0 Z" /></g><g
           transform="translate(99.4277,115.1807)"
           id="g36"><path
             id="path38"
             style="fill:#9f9f9e;fill-opacity:1;fill-rule:nonzero;stroke:none"
             d="m 0,0 94.082,0 c 2.952,0 5.345,-2.393 5.345,-5.343 l 0,-17.165 -4.939,0 -0.506,0 0,16.527 -93.982,0 -93.982,0 0,-16.527 -0.508,0 -4.938,0 0,17.165 c 0,2.95 2.393,5.343 5.344,5.343 L 0,0 Z" /></g><g
           transform="translate(174.0967,15.7236)"
           id="g40"><path
             id="path42"
             style="fill:#9f9f9e;fill-opacity:1;fill-rule:nonzero;stroke:none"
             d="m 0,0 c 0,-1.512 -1.226,-2.736 -2.737,-2.736 l -143.864,0 c -1.511,0 -2.737,1.224 -2.737,2.736 l 0,72.387 c 0,1.513 1.226,2.738 2.737,2.738 l 143.864,0 C -1.226,75.125 0,73.9 0,72.387 L 0,0 Z" /></g><g
           transform="translate(160.3301,99.0449)"
           id="g44"><path
             id="path46"
             style="fill:#9f9f9e;fill-opacity:1;fill-rule:nonzero;stroke:none"
             d="m 0,0 c -18.02,6.388 -41.191,8.212 -61.491,8.212 -20.302,0 -43.472,-1.824 -61.491,-8.212 0,0 24.214,0.312 61.491,0.312 C -24.216,0.312 0,0 0,0" /></g><g
           transform="translate(86.3906,102.4209)"
           id="g48"><path
             id="path50"
             style="fill:#9f9f9e;fill-opacity:1;fill-rule:nonzero;stroke:none"
             d="m 0,0 c 1.141,0 1.846,-0.47 2.515,-1.221 0.245,0.219 0.508,0.413 0.791,0.58 0.708,0.416 1.489,0.628 2.27,0.631 l 10.59,0.001 -0.705,-1.043 13.318,0.01 1.211,-1.968 1.097,1.948 8.84,-0.005 2.194,-1.621 0,1.621 16.639,0 0,-7.488 -15.356,0 -2.232,1.633 0,-1.635 -12.438,0.002 0,-0.004 -0.845,1.291 C 27.205,-7.99 25.984,-8.557 23.98,-8.557 l -12.181,-0.004 -0.174,-1.054 -4.269,0 0.097,0.582 C 7.41,-9.06 7.369,-9.088 7.326,-9.113 6.342,-9.692 5.211,-9.883 4.146,-9.651 3.328,-9.474 2.621,-9.064 2.068,-8.497 1.353,-9.164 0.385,-9.602 -0.535,-9.602 l -20.963,-0.013 -0.336,1.803 -0.86,-1.803 -3.495,0 c -1.102,-0.176 -2.211,-0.022 -3.196,0.453 -1.367,0.657 -2.267,1.851 -2.41,3.191 -0.236,2.227 0.67,4.006 2.62,5.142 1.874,1.094 3.864,1.308 5.915,0.638 l 0.378,-0.125 0.144,0.307 3.916,0 0.297,-1.675 0.578,1.675 L 0,0" /></g><g
           transform="translate(110.1445,96.3164)"
           id="g52"><path
             id="path54"
             style="fill:#bbbbb9;fill-opacity:1;fill-rule:nonzero;stroke:none"
             d="m 0,0 -1.406,0 0,2.681 1.98,0 c 1.072,0 1.571,-0.41 1.571,-1.286 C 2.145,0.354 1.604,0 0,0 m 9.764,3.806 -1.616,0 L 8.105,3.73 6.254,0.563 4.291,3.732 4.246,3.806 2.51,3.806 2.651,3.584 2.986,3.065 C 2.451,3.545 1.629,3.806 0.562,3.806 l -3.491,0 0,-4.118 -2.588,4.042 -0.044,0.07 -1.336,0 -0.044,-0.071 -2.945,-4.671 -0.137,-0.219 1.156,0 0,-0.002 2.572,0 0,1.098 -1.513,0 1.515,2.572 2.14,-3.594 0.044,-0.074 1.723,0 -0.003,0.005 2.647,0 c 2.281,0 3.443,0.841 3.443,2.497 0,0.287 -0.041,0.553 -0.116,0.795 l 2.07,-3.221 0.046,-0.071 1.008,0 0.047,0.073 2.874,4.67 0.134,0.219" /></g><g
           transform="translate(129.9912,100.1221)"
           id="g56"><path
             id="path58"
             style="fill:#bbbbb9;fill-opacity:1;fill-rule:nonzero;stroke:none"
             d="m 0,0 -0.155,0 0,-2.951 -3.961,2.92 -0.041,0.031 -1.037,0 0,-4.121 -2.592,4.048 -0.047,0.071 -1.334,0 -0.045,-0.072 -2.944,-4.671 -0.138,-0.218 1.569,0 0.003,0.004 2.16,0 0,1.098 -1.512,0 1.512,2.566 2.139,-3.596 0.043,-0.072 1.725,0 -0.002,0.001 0.873,0 0,2.992 3.944,-2.961 0.042,-0.031 1.035,0 L 1.237,0 0,0 Z" /></g><g
           transform="translate(136.2207,100.1201)"
           id="g60"><path
             id="path62"
             style="fill:#bbbbb9;fill-opacity:1;fill-rule:nonzero;stroke:none"
             d="M 0,0 -3.086,0 C -4.17,0 -4.535,-0.314 -4.535,-1.252 l 0,-2.459 c 0,-0.931 0.365,-1.248 1.449,-1.248 l 3.086,0 c 1.087,0 1.453,0.317 1.453,1.248 l 0,0.698 -0.154,0 -1.215,0.003 -0.155,0 0,-0.763 -2.944,0 0,2.619 2.944,0 0,-0.688 0.155,0 1.214,-0.008 0.155,0 0,0.598 C 1.453,-0.305 1.1,0 0,0" /></g><g
           transform="translate(143.7012,96.3164)"
           id="g64"><path
             id="path66"
             style="fill:#bbbbb9;fill-opacity:1;fill-rule:nonzero;stroke:none"
             d="m 0,0 -4.009,0 0,0.87 2.392,0 0,1.094 -2.392,0 0,0.717 4.107,0 0,1.123 -5.63,0 0,-4.96 5.688,0 L 0.156,0 0,0 Z" /></g><g
           transform="translate(64.4414,97.5918)"
           id="g68"><path
             id="path70"
             style="fill:#bbbbb9;fill-opacity:1;fill-rule:nonzero;stroke:none"
             d="M 0,0 0.651,1.374 0.935,0 0,0 Z M 8.99,3.587 7.241,-0.29 6.486,3.587 l -1.528,0 -1.973,-5.721 -1.01,5.721 -1.907,0 -2.882,-6.164 0.429,2.577 -2.865,0 -0.22,-1.327 1.197,0 -0.135,-0.709 c -0.689,-0.258 -1.856,-0.162 -2.352,0.678 -0.315,0.533 -0.608,1.722 0.721,2.813 1.08,0.889 2.949,1.048 4.031,0.581 0,0 0.137,0.744 0.24,1.438 -2.076,0.68 -3.689,0.113 -4.769,-0.517 -1.471,-0.858 -2.18,-2.165 -1.99,-3.942 0.217,-2.064 3.054,-3.362 5.455,-2.053 0.022,0.012 0.039,0.02 0.055,0.03 l -0.225,-0.483 1.611,0 1.014,2.117 1.783,0 0.395,-2.117 2.625,0 1.338,3.959 0.859,-3.959 1.029,0 2.009,4.38 0.204,-4.38 1.545,0 -0.326,7.078 -1.854,0" /></g><g
           transform="translate(75.7314,94.1006)"
           id="g72"><path
             id="path74"
             style="fill:#bbbbb9;fill-opacity:1;fill-rule:nonzero;stroke:none"
             d="m 0,0 4.308,0 0.258,1.52 -2.696,0 0.213,1.261 2.344,0 0.258,1.518 -2.368,0 0.206,1.261 2.693,0 0.258,1.518 -4.273,0 L 0,0 Z" /></g><g
           transform="translate(96.7676,98.8682)"
           id="g76"><path
             id="path78"
             style="fill:#bbbbb9;fill-opacity:1;fill-rule:nonzero;stroke:none"
             d="m 0,0 -0.961,2.311 -1.768,0 1.819,-3.733 -0.559,-3.346 1.544,0 0.474,2.957 2.78,4.122 -1.802,0 L 0,0 Z" /></g><g
           transform="translate(93.1611,96.958)"
           id="g80"><path
             id="path82"
             style="fill:#bbbbb9;fill-opacity:1;fill-rule:nonzero;stroke:none"
             d="M 0,0 C -0.417,-1.18 -1.417,-1.855 -2.235,-1.51 -3.05,-1.164 -3.375,0.068 -2.958,1.246 -2.542,2.423 -1.542,3.1 -0.725,2.754 0.093,2.411 0.417,1.178 0,0 m -0.605,4.16 c -1.709,0.371 -3.487,-0.911 -3.966,-2.869 -0.48,-1.957 0.519,-3.844 2.231,-4.217 1.71,-0.373 3.488,0.912 3.967,2.868 0.478,1.957 -0.52,3.845 -2.232,4.218" /></g><g
           transform="translate(85.7178,98.332)"
           id="g84"><path
             id="path86"
             style="fill:#bbbbb9;fill-opacity:1;fill-rule:nonzero;stroke:none"
             d="m 0,0 -1.073,0 0.238,1.316 1.005,0 C 1.26,1.316 1.039,0 0,0 m -0.187,-2.854 -1.363,0 0.239,1.412 1.294,0 c 1.226,0 1.192,-1.412 -0.17,-1.412 m 0.902,5.66 c -0.834,0.014 -2.896,0 -2.896,0 l 0.019,0 -1.193,-7.024 3.473,0 c 1.432,0 3.524,1.987 1.619,3.61 C 3.695,1.3 1.755,2.79 0.715,2.806" /></g></g></g></g></svg>

<?xml version="1.0" encoding="UTF-8" standalone="no"?>
<svg
   viewBox="0 0 250.56799 145.976"
   height="145.976"
   width="250.56799"
   xml:space="preserve"
   version="1.1"
   id="svg2"
   sodipodi:docname="gba.svg"
   inkscape:version="1.4.2 (f4327f4, 2025-05-13)"
   xmlns:inkscape="http://www.inkscape.org/namespaces/inkscape"
   xmlns:sodipodi="http://sodipodi.sourceforge.net/DTD/sodipodi-0.dtd"
   xmlns="http://www.w3.org/2000/svg"
   xmlns:svg="http://www.w3.org/2000/svg"
   xmlns:rdf="http://www.w3.org/1999/02/22-rdf-syntax-ns#"
   xmlns:cc="http://creativecommons.org/ns#"
   xmlns:dc="http://purl.org/dc/elements/1.1/"><sodipodi:namedview
     id="namedview1"
     pagecolor="#ffffff"
     bordercolor="#000000"
     borderopacity="0.25"
     inkscape:showpageshadow="2"
     inkscape:pageopacity="0.0"
     inkscape:pagecheckerboard="0"
     inkscape:deskcolor="#d1d1d1"
     inkscape:zoom="4.0714458"
     inkscape:cx="109.17498"
     inkscape:cy="87.561034"
     inkscape:window-width="1920"
     inkscape:window-height="1009"
     inkscape:window-x="-8"
     inkscape:window-y="-8"
     inkscape:window-maximized="1"
     inkscape:current-layer="svg2" /><metadata
     id="metadata8"><rdf:RDF><cc:Work
         rdf:about=""><dc:format>image/svg+xml</dc:format><dc:type
           rdf:resource="http://purl.org/dc/dcmitype/StillImage" /></cc:Work></rdf:RDF></metadata><defs
     id="defs6"><clipPath
       id="clipPath16"
       clipPathUnits="userSpaceOnUse"><path
         id="path18"
         d="M 0,115.181 H 198.854 V 0 H 0 Z" /></clipPath></defs><g
     transform="matrix(1.25,0,0,-1.25,0.736839,144.9587)"
     id="g10"><g
       id="g12"><g
         clip-path="url(#clipPath16)"
         id="g14"><g
           transform="translate(4.9375,4.166)"
           id="g20"><path
             id="path22"
             style="fill:#9f9f9e;fill-opacity:1;fill-rule:nonzero;stroke:none"
             d="M 0,0 V 88.507 H 5.475 V -4.166 H 4.167 C 1.866,-4.166 0,-2.3 0,0 v 88.507" /></g><g
           transform="translate(193.916,4.166)"
           id="g24"><path
             id="path26"
             style="fill:#9f9f9e;fill-opacity:1;fill-rule:nonzero;stroke:none"
             d="M 0,0 V 88.507 H -5.474 V -4.166 h 1.308 C -1.863,-4.166 0,-2.3 0,0 v 88.507" /></g><g
           transform="translate(99.4277)"
           id="g28"><path
             id="path30"
             style="fill:#bbbbb9;fill-opacity:1;fill-rule:nonzero;stroke:none"
             d="m 0,0 h 89.015 v 92.673 h 5.473 4.939 v 17.165 c 0,2.95 -2.393,5.343 -5.345,5.343 H 0 -94.084 c -2.951,0 -5.344,-2.393 -5.344,-5.343 V 92.673 h 4.938 5.474 V 0 Z" /></g><g
           transform="translate(84.3974,9.4893)"
           id="g32"><path
             id="path34"
             style="fill:#9f9f9e;fill-opacity:1;fill-rule:nonzero;stroke:none"
             d="M 0,0 H 30.06 L 14.346,-6.641 Z" /></g><g
           transform="translate(99.4277,115.1807)"
           id="g36"><path
             id="path38"
             style="fill:#9f9f9e;fill-opacity:1;fill-rule:nonzero;stroke:none"
             d="m 0,0 h 94.082 c 2.952,0 5.345,-2.393 5.345,-5.343 V -22.508 H 94.488 93.982 V -5.981 H 0 -93.982 v -16.527 h -0.508 -4.938 v 17.165 c 0,2.95 2.393,5.343 5.344,5.343 z" /></g><g
           transform="translate(174.0967,15.7236)"
           id="g40"><path
             id="path42"
             style="fill:#9f9f9e;fill-opacity:1;fill-rule:nonzero;stroke:none"
             d="m 0,0 c 0,-1.512 -1.226,-2.736 -2.737,-2.736 h -143.864 c -1.511,0 -2.737,1.224 -2.737,2.736 v 72.387 c 0,1.513 1.226,2.738 2.737,2.738 H -2.737 C -1.226,75.125 0,73.9 0,72.387 Z" /></g><g
           transform="translate(160.3301,99.0449)"
           id="g44"><path
             id="path46"
             style="fill:#9f9f9e;fill-opacity:1;fill-rule:nonzero;stroke:none"
             d="m 0,0 c -18.02,6.388 -41.191,8.212 -61.491,8.212 -20.302,0 -43.472,-1.824 -61.491,-8.212 0,0 24.214,0.312 61.491,0.312 C -24.216,0.312 0,0 0,0" /></g><g
           transform="translate(86.3906,102.4209)"
           id="g48"><path
             id="path50"
             style="fill:#9f9f9e;fill-opacity:1;fill-rule:nonzero;stroke:none"
             d="m 0,0 c 1.141,0 1.846,-0.47 2.515,-1.221 0.245,0.219 0.508,0.413 0.791,0.58 0.708,0.416 1.489,0.628 2.27,0.631 l 10.59,0.001 -0.705,-1.043 13.318,0.01 1.211,-1.968 1.097,1.948 8.84,-0.005 2.194,-1.621 v 1.621 H 58.76 V -8.555 H 43.404 l -2.232,1.633 v -1.635 l -12.438,0.002 v -0.004 l -0.845,1.291 C 27.205,-7.99 25.984,-8.557 23.98,-8.557 L 11.799,-8.561 11.625,-9.615 H 7.356 l 0.097,0.582 C 7.41,-9.06 7.369,-9.088 7.326,-9.113 6.342,-9.692 5.211,-9.883 4.146,-9.651 3.328,-9.474 2.621,-9.064 2.068,-8.497 1.353,-9.164 0.385,-9.602 -0.535,-9.602 l -20.963,-0.013 -0.336,1.803 -0.86,-1.803 h -3.495 c -1.102,-0.176 -2.211,-0.022 -3.196,0.453 -1.367,0.657 -2.267,1.851 -2.41,3.191 -0.236,2.227 0.67,4.006 2.62,5.142 1.874,1.094 3.864,1.308 5.915,0.638 l 0.378,-0.125 0.144,0.307 h 3.916 l 0.297,-1.675 0.578,1.675 L 0,0" /></g><g
           transform="translate(110.1445,96.3164)"
           id="g52"><path
             id="path54"
             style="fill:#bbbbb9;fill-opacity:1;fill-rule:nonzero;stroke:none"
             d="m 0,0 h -1.406 v 2.681 h 1.98 c 1.072,0 1.571,-0.41 1.571,-1.286 C 2.145,0.354 1.604,0 0,0 M 9.764,3.806 H 8.148 L 8.105,3.73 6.254,0.563 4.291,3.732 4.246,3.806 H 2.51 L 2.651,3.584 2.986,3.065 C 2.451,3.545 1.629,3.806 0.562,3.806 H -2.929 V -0.312 L -5.517,3.73 -5.561,3.8 h -1.336 l -0.044,-0.071 -2.945,-4.671 -0.137,-0.219 h 1.156 v -0.002 h 2.572 v 1.098 h -1.513 l 1.515,2.572 2.14,-3.594 0.044,-0.074 h 1.723 l -0.003,0.005 h 2.647 c 2.281,0 3.443,0.841 3.443,2.497 0,0.287 -0.041,0.553 -0.116,0.795 l 2.07,-3.221 0.046,-0.071 h 1.008 l 0.047,0.073 2.874,4.67 0.134,0.219" /></g><g
           transform="translate(129.9912,100.1221)"
           id="g56"><path
             id="path58"
             style="fill:#bbbbb9;fill-opacity:1;fill-rule:nonzero;stroke:none"
             d="M 0,0 H -0.155 V -2.951 L -4.116,-0.031 -4.157,0 h -1.037 v -4.121 l -2.592,4.048 -0.047,0.071 h -1.334 l -0.045,-0.072 -2.944,-4.671 -0.138,-0.218 h 1.569 l 0.003,0.004 h 2.16 v 1.098 h -1.512 l 1.512,2.566 2.139,-3.596 0.043,-0.072 h 1.725 l -0.002,0.001 h 0.873 V -1.97 L 0.16,-4.931 0.202,-4.962 H 1.237 V 0 Z" /></g><g
           transform="translate(136.2207,100.1201)"
           id="g60"><path
             id="path62"
             style="fill:#bbbbb9;fill-opacity:1;fill-rule:nonzero;stroke:none"
             d="M 0,0 H -3.086 C -4.17,0 -4.535,-0.314 -4.535,-1.252 v -2.459 c 0,-0.931 0.365,-1.248 1.449,-1.248 H 0 c 1.087,0 1.453,0.317 1.453,1.248 v 0.698 H 1.299 L 0.084,-3.01 h -0.155 v -0.763 h -2.944 v 2.619 h 2.944 V -1.842 H 0.084 L 1.298,-1.85 h 0.155 v 0.598 C 1.453,-0.305 1.1,0 0,0" /></g><g
           transform="translate(143.7012,96.3164)"
           id="g64"><path
             id="path66"
             style="fill:#bbbbb9;fill-opacity:1;fill-rule:nonzero;stroke:none"
             d="m 0,0 h -4.009 v 0.87 h 2.392 v 1.094 h -2.392 v 0.717 h 4.107 v 1.123 h -5.63 v -4.96 H 0.156 V 0 Z" /></g><g
           transform="translate(64.4414,97.5918)"
           id="g68"><path
             id="path70"
             style="fill:#bbbbb9;fill-opacity:1;fill-rule:nonzero;stroke:none"
             d="M 0,0 0.651,1.374 0.935,0 Z M 8.99,3.587 7.241,-0.29 6.486,3.587 H 4.958 L 2.985,-2.134 1.975,3.587 H 0.068 L -2.814,-2.577 -2.385,0 H -5.25 l -0.22,-1.327 h 1.197 l -0.135,-0.709 c -0.689,-0.258 -1.856,-0.162 -2.352,0.678 -0.315,0.533 -0.608,1.722 0.721,2.813 1.08,0.889 2.949,1.048 4.031,0.581 0,0 0.137,0.744 0.24,1.438 -2.076,0.68 -3.689,0.113 -4.769,-0.517 -1.471,-0.858 -2.18,-2.165 -1.99,-3.942 0.217,-2.064 3.054,-3.362 5.455,-2.053 0.022,0.012 0.039,0.02 0.055,0.03 l -0.225,-0.483 h 1.611 l 1.014,2.117 h 1.783 l 0.395,-2.117 h 2.625 l 1.338,3.959 0.859,-3.959 h 1.029 l 2.009,4.38 0.204,-4.38 H 11.17 L 10.844,3.587 H 8.99" /></g><g
           transform="translate(75.7314,94.1006)"
           id="g72"><path
             id="path74"
             style="fill:#bbbbb9;fill-opacity:1;fill-rule:nonzero;stroke:none"
             d="M 0,0 H 4.308 L 4.566,1.52 H 1.87 L 2.083,2.781 H 4.427 L 4.685,4.299 H 2.317 L 2.523,5.56 H 5.216 L 5.474,7.078 H 1.201 Z" /></g><g
           transform="translate(96.7676,98.8682)"
           id="g76"><path
             id="path78"
             style="fill:#bbbbb9;fill-opacity:1;fill-rule:nonzero;stroke:none"
             d="m 0,0 -0.961,2.311 h -1.768 l 1.819,-3.733 -0.559,-3.346 h 1.544 l 0.474,2.957 2.78,4.122 H 1.527 Z" /></g><g
           transform="translate(93.1611,96.958)"
           id="g80"><path
             id="path82"
             style="fill:#bbbbb9;fill-opacity:1;fill-rule:nonzero;stroke:none"
             d="M 0,0 C -0.417,-1.18 -1.417,-1.855 -2.235,-1.51 -3.05,-1.164 -3.375,0.068 -2.958,1.246 -2.542,2.423 -1.542,3.1 -0.725,2.754 0.093,2.411 0.417,1.178 0,0 m -0.605,4.16 c -1.709,0.371 -3.487,-0.911 -3.966,-2.869 -0.48,-1.957 0.519,-3.844 2.231,-4.217 1.71,-0.373 3.488,0.912 3.967,2.868 0.478,1.957 -0.52,3.845 -2.232,4.218" /></g><g
           transform="translate(85.7178,98.332)"
           id="g84"><path
             id="path86"
             style="fill:#bbbbb9;fill-opacity:1;fill-rule:nonzero;stroke:none"
             d="m 0,0 h -1.073 l 0.238,1.316 H 0.17 C 1.26,1.316 1.039,0 0,0 M -0.187,-2.854 H -1.55 l 0.239,1.412 h 1.294 c 1.226,0 1.192,-1.412 -0.17,-1.412 m 0.902,5.66 c -0.834,0.014 -2.896,0 -2.896,0 h 0.019 l -1.193,-7.024 h 3.473 c 1.432,0 3.524,1.987 1.619,3.61 C 3.695,1.3 1.755,2.79 0.715,2.806" /></g></g></g></g></svg>
